X:91
T:The Bunch of Roses
C:F.O'Neill.
M:6/8
L:1/8
K:Bb
d/c/|"Gm"B2 B Bcd|"F"c2 A ABc|"Gm"B2 G GAB|"Dm"AFD DGA|"Gm"B2 B Bcd|\
"F"c2 A ABc|"Gm"BAG "D"AG^F|"Gm"G3 G2:|
d/=e/|"Bb"f2 d "D7"d=e^f|"Gm"g2 d "F"dcA|"Gm"G2 f f2 g|\
"Dm"afd d2 =c|"F"fga gf=e|"Bb" f_ed "F"cBA|"Gm"GAB "D"AG^F|"Gm"G3 G2:|
